TH1/negfill.svg

<svg xmlns="http://www.w3.org/2000/svg" viewBox="0 0 1200 800" preserveAspectRatio="none" width="1200" height="800">
 <path d="M0,0H1200V800H0Z" style="fill: white;"></path>
 <g>
  <g transform="translate(120,80)">
   <path d="M0,0H960V640H0Z" style="fill: white; stroke: black; stroke-width: 1;"></path>
   <svg x="0" y="0" overflow="hidden" width="960" height="640" viewBox="0 0 960 640">
    <g>
     <path d="M0,407h69v-52h68v29h69v166h68v-186h69v35h68v76h69v-49h69v-397h68v582h69v-195h68v-104h69v56h68v17h69L960,319H0Z" style="stroke-linejoin: miter; stroke: #00009a; stroke-width: 1; fill: red;"></path>
    </g>
   </svg>
   <g>
    <g transform="translate(0,640)">
     <path d="M0,0h960M0,-24v24m69,-24v24m68,-24v24m69,-24v24m68,-24v24m69,-24v24m68,-24v24m69,-24v24m69,-24v24m68,-24v24m69,-24v24m68,-24v24m69,-24v24m68,-24v24m69,-12v12" style="stroke: black; stroke-width: 1;"></path>
     <g font-family="Arial" font-size="28" space="preserve" fill="black" text-anchor="middle">
      <text dy=".8em" transform="translate(35,6)">
       A12
      </text>
      <text dy=".8em" transform="translate(103,6)">
       A13
      </text>
      <text dy=".8em" transform="translate(172,6)">
       A14
      </text>
      <text dy=".8em" transform="translate(240,6)">
       A15
      </text>
      <text dy=".8em" transform="translate(309,6)">
       A16
      </text>
      <text dy=".8em" transform="translate(377,6)">
       B11
      </text>
      <text dy=".8em" transform="translate(446,6)">
       B12
      </text>
      <text dy=".8em" transform="translate(515,6)">
       B13
      </text>
      <text dy=".8em" transform="translate(583,6)">
       B14
      </text>
      <text dy=".8em" transform="translate(652,6)">
       B15
      </text>
      <text dy=".8em" transform="translate(720,6)">
       C10
      </text>
      <text dy=".8em" transform="translate(789,6)">
       D4
      </text>
      <text dy=".8em" transform="translate(857,6)">
       D5
      </text>
      <text dy=".8em" transform="translate(926,6)">
       D6
      </text>
     </g>
     <g font-family="Arial" font-size="28" space="preserve" transform="translate(960,45)">
      <text fill="black" text-anchor="end" dy=".4em">
       Cell
      </text>
     </g>
    </g>
    <g>
     <path d="M0,0v640M18,633h-18m36,-15h-36m18,-15h-18m18,-15h-18m18,-15h-18m36,-15h-36m18,-14h-18m18,-15h-18m18,-15h-18m36,-15h-36m18,-15h-18m18,-15h-18m18,-15h-18m36,-15h-36m18,-15h-18m18,-15h-18m18,-15h-18m36,-15h-36m18,-15h-18m18,-15h-18m18,-15h-18m36,-15h-36m18,-15h-18m18,-15h-18m18,-15h-18m36,-15h-36m18,-14h-18m18,-15h-18m18,-15h-18m36,-15h-36m18,-15h-18m18,-15h-18m18,-15h-18m36,-15h-36m18,-15h-18m18,-15h-18m18,-15h-18m36,-15h-36m18,-15h-18m18,-15h-18m18,-15h-18m36,-15h-36m18,-15h-18" style="stroke: black; stroke-width: 1;"></path>
     <g font-family="Arial" font-size="28" space="preserve" fill="black" text-anchor="end">
      <text dy=".4em" transform="translate(-4,618)">
       -1
      </text>
      <text dy=".4em" transform="translate(-4,558)">
       -0.8
      </text>
      <text dy=".4em" transform="translate(-4,499)">
       -0.6
      </text>
      <text dy=".4em" transform="translate(-4,439)">
       -0.4
      </text>
      <text dy=".4em" transform="translate(-4,379)">
       -0.2
      </text>
      <text dy=".4em" transform="translate(-4,319)">
       0
      </text>
      <text dy=".4em" transform="translate(-4,259)">
       0.2
      </text>
      <text dy=".4em" transform="translate(-4,200)">
       0.4
      </text>
      <text dy=".4em" transform="translate(-4,140)">
       0.6
      </text>
      <text dy=".4em" transform="translate(-4,80)">
       0.8
      </text>
      <text dy=".4em" transform="translate(-4,20)">
       1
      </text>
     </g>
     <g font-family="Arial" font-size="28" space="preserve" transform="translate(-67,0)">
      <text fill="black" text-anchor="end" dy=".4em" transform=" rotate(270)">
       Asymetery
      </text>
     </g>
    </g>
   </g>
  </g>
  <g transform="translate(120,4)" font-family="Arial" font-size="40" space="preserve">
   <text fill="black" text-anchor="middle" dy=".8em" transform="translate(480)">
    EnergyMeanAsyLo
   </text>
  </g>
 </g>
</svg>

<svg xmlns="http://www.w3.org/2000/svg" viewBox="0 0 1200 800" preserveAspectRatio="none" width="1200" height="800">
 <path d="M0,0H1200V800H0Z" style="fill: white;"></path>
 <g>
  <g transform="translate(120,80)">
   <path d="M0,0H960V640H0Z" style="fill: white; stroke: black; stroke-width: 1;"></path>
   <svg x="0" y="0" overflow="hidden" width="960" height="640" viewBox="0 0 960 640">
    <g>
     <path d="M0,407h69v-52h68v29h69v166h68v-186h69v35h68v76h69v-49h69v-397h68v582h69v-195h68v-104h69v56h68v17h69L960,319H0Z" style="stroke-linejoin: miter; stroke: #00009a; stroke-width: 1; fill: red;"></path>
    </g>
   </svg>
   <g>
    <g transform="translate(0,640)">
     <path d="M0,0h960M0,-24V0M69,-24V0M137,-24V0M206,-24V0M274,-24V0M343,-24V0M411,-24V0M480,-24V0M549,-24V0M617,-24V0M686,-24V0M754,-24V0M823,-24V0M891,-24V0M960,-12V0" style="stroke: black; stroke-width: 1;"></path>
     <g font-family="Arial" font-size="28" space="preserve" fill="black" text-anchor="middle">
      <text dy=".8em" transform="translate(35,6)">
       A12
      </text>
      <text dy=".8em" transform="translate(103,6)">
       A13
      </text>
      <text dy=".8em" transform="translate(172,6)">
       A14
      </text>
      <text dy=".8em" transform="translate(240,6)">
       A15
      </text>
      <text dy=".8em" transform="translate(309,6)">
       A16
      </text>
      <text dy=".8em" transform="translate(377,6)">
       B11
      </text>
      <text dy=".8em" transform="translate(446,6)">
       B12
      </text>
      <text dy=".8em" transform="translate(515,6)">
       B13
      </text>
      <text dy=".8em" transform="translate(583,6)">
       B14
      </text>
      <text dy=".8em" transform="translate(652,6)">
       B15
      </text>
      <text dy=".8em" transform="translate(720,6)">
       C10
      </text>
      <text dy=".8em" transform="translate(789,6)">
       D4
      </text>
      <text dy=".8em" transform="translate(857,6)">
       D5
      </text>
      <text dy=".8em" transform="translate(926,6)">
       D6
      </text>
     </g>
     <g font-family="Arial" font-size="28" space="preserve" transform="translate(960,45)">
      <text fill="black" text-anchor="end" dy=".4em">
       Cell
      </text>
     </g>
    </g>
    <g>
     <path d="M0,0v640M18,633H0M36,618H0M18,603H0M18,588H0M18,573H0M36,558H0M18,544H0M18,529H0M18,514H0M36,499H0M18,484H0M18,469H0M18,454H0M36,439H0M18,424H0M18,409H0M18,394H0M36,379H0M18,364H0M18,349H0M18,334H0M36,319H0M18,304H0M18,289H0M18,274H0M36,259H0M18,245H0M18,230H0M18,215H0M36,200H0M18,185H0M18,170H0M18,155H0M36,140H0M18,125H0M18,110H0M18,95H0M36,80H0M18,65H0M18,50H0M18,35H0M36,20H0M18,5H0" style="stroke: black; stroke-width: 1;"></path>
     <g font-family="Arial" font-size="28" space="preserve" fill="black" text-anchor="end">
      <text dy=".4em" transform="translate(-4,618)">
       -1
      </text>
      <text dy=".4em" transform="translate(-4,558)">
       -0.8
      </text>
      <text dy=".4em" transform="translate(-4,499)">
       -0.6
      </text>
      <text dy=".4em" transform="translate(-4,439)">
       -0.4
      </text>
      <text dy=".4em" transform="translate(-4,379)">
       -0.2
      </text>
      <text dy=".4em" transform="translate(-4,319)">
       0
      </text>
      <text dy=".4em" transform="translate(-4,259)">
       0.2
      </text>
      <text dy=".4em" transform="translate(-4,200)">
       0.4
      </text>
      <text dy=".4em" transform="translate(-4,140)">
       0.6
      </text>
      <text dy=".4em" transform="translate(-4,80)">
       0.8
      </text>
      <text dy=".4em" transform="translate(-4,20)">
       1
      </text>
     </g>
     <g font-family="Arial" font-size="28" space="preserve" transform="translate(-67,0)">
      <text fill="black" text-anchor="end" dy=".4em" transform=" rotate(270)">
       Asymetery
      </text>
     </g>
    </g>
   </g>
  </g>
  <g transform="translate(120,4)" font-family="Arial" font-size="40" space="preserve">
   <text fill="black" text-anchor="middle" dy=".8em" transform="translate(480)">
    EnergyMeanAsyLo
   </text>
  </g>
 </g>
</svg>
